X:181
T:Pilchard Fishery - Houghton
T:Tune not displayed
%%VWML:SBG-1-2-423-0
F:http://www.vwml.org/record/SBG/1/2/423
Z:Original Sibelius transcriptions by M. & S. Graebe
M:4/4
I:linebreak $
K:F
V:1 treble nm="P1"
V:1
 F2 | A2 AA A2 G2 | cB GF G2 FA | A2 B2 BB B/dc/ | AGFF F2 F2 |$ A2 AA c2 BG | GFFF F2 FA | %7
 c2 cc d2 cF | GFFF F2 x2 | %9

